X:2376
L:1/8
Q:1/4=150
M:2/4
K:G
 gfgf | gdBd | efgf | e2 d2 | gdBg | ecAc | BdDF | G2 G2 :: DAFA | DBGB | DABc | c2 B2 | gdBc | 
"^bar misssing in MS" ecAc | Bd FA | G2 G2 :|

